X: 25840
T: Master Of Ceremonies, The
R: reel
M: 4/4
K: Emajor
BE~E2 GFEB|efge cfec|BE~E2 GFEG|A2GA FGAc|
BE~E2 GFEB|efge cfec|BE~E2 cBec|1 BGFA GEEA:|2 BGFA GEEB||
|:efge cfec|Bceg f2ec|efge cfec|dfef geed|
efge cfec|Bceg f2ed|eg~g2 bg~g2|1 dfef geed:|2 dfef geec|

